X:1
T:Title
%%score { ( 1 3 ) | ( 2 4 ) }
L:1/8
M:4/4
K:A
V:1 treble nm="Grand Piano"
V:3 treble 
V:2 bass 
V:4 bass 
V:1
 z4 z2[Q:1/4=108] E2 | A2 cB A2 E2 | A6 z2 | [A,DF]2 [Fd]2 [Ec]2 [DB]2 |[M:3/4] [A,CA]6 | %5
[M:1/4] C2 |[M:4/4] F2 AG F2 C2 | F2 AG F2 F2 | [^DB]3 [DA] [DG]2 [DF]2 |[M:3/4] E6 |[M:1/4] E2 | %11
[M:4/4] d6 z2 | d2 cB c2 F2 | e6 z2 |[M:3/4] e2 dc d2 |[M:1/4] d2 |[M:4/4] d2 d2 d2 d2 | %17
 d2 cB c2 [=Ge]2 | [FA]2 [^Ed]2 [=Ec]2 [DB]2 |[M:3/4] [CA]6 |] %20
V:2
 z4 z2 E,2 | A,2 CB, A,2 E,2 | [CE]2 D2 C2 A,,2 | D,2 [B,,A,]2 [E,A,]2 [E,G,]2 |[M:3/4] A,,6 | %5
[M:1/4] C,2 |[M:4/4] F,2 A,G, F,2 C,2 | F,2 A,G, F,2 F,2 | [B,,B,]3 [B,,B,] [B,,B,]2 [B,,A,]2 | %9
[M:3/4] [E,G,]6 |[M:1/4] z2 |[M:4/4] z2 [E,G,]2 [F,A,]2 [G,B,E]2 | [A,B,E]2 [A,E]2 [A,E]2 z2 | %13
 z2 [F,^A,]2 [G,B,]2[K:treble] [A,CF]2 |[M:3/4] [B,CF]2 [B,F]2 [B,F]2 |[M:1/4] [A,B,^E]2 | %16
[M:4/4][K:bass] [G,B,E]2 [E,G,E]2 [F,A,E]2 [G,B,E]2 | [A,E]2 [A,E]2 [A,E]2 [C,A,]2 | %18
 [D,A,]2 [B,,A,]2 [E,A,]2 [E,G,]2 |[M:3/4] [A,,A,]6 |] %20
V:3
 x8 | x8 | z2 F2 E2 [A,CE]2 | x8 |[M:3/4] x6 |[M:1/4] x2 |[M:4/4] x8 | x8 | x8 |[M:3/4] x6 | %10
[M:1/4] x2 |[M:4/4] z2 E2 E2 d2 | x8 | z2 F2 F2 e2 |[M:3/4] x6 |[M:1/4] x2 |[M:4/4] x8 | x8 | x8 | %19
[M:3/4] x6 |] %20
V:4
 x8 | x8 | A,6 z2 | x8 |[M:3/4] x6 |[M:1/4] x2 |[M:4/4] x8 | x8 | x8 |[M:3/4] x6 |[M:1/4] x2 | %11
[M:4/4] x8 | x8 | x6[K:treble] x2 |[M:3/4] x6 |[M:1/4] x2 |[M:4/4][K:bass] x8 | x8 | x8 | %19
[M:3/4] x6 |] %20

